src/img/call.svg

<svg width="18" height="18" viewBox="0 0 18 18" fill="none" xmlns="http://www.w3.org/2000/svg">
<path fill-rule="evenodd" clip-rule="evenodd" d="M0 1C0 0.447716 0.447754 0 1 0H4.5C5.05225 0 5.5 0.447716 5.5 1C5.5 2.25 5.69995 3.45 6.07007 4.57C6.17993 4.92 6.1001 5.31 5.82007 5.57L3.62012 7.78C5.06006 10.62 7.37988 12.93 10.21 14.37L12.4099 12.17C12.6899 11.9 13.0801 11.82 13.4299 11.93C14.55 12.3 15.75 12.5 17 12.5C17.5522 12.5 18 12.9477 18 13.5V17C18 17.2652 17.8945 17.5196 17.707 17.7071C17.5195 17.8946 17.2651 18 17 18C7.61108 18 0 10.3888 0 1ZM16 6.5V8H10V2H11.5V5.5L17 0L18 1L12.5 6.5H16Z" fill="#F3084E"/>
</svg>

<svg width="18" height="18" fill="none" xmlns="http://www.w3.org/2000/svg"><path fill-rule="evenodd" clip-rule="evenodd" d="M0 1a1 1 0 0 1 1-1h3.5a1 1 0 0 1 1 1c0 1.25.2 2.45.57 3.57.11.35.03.74-.25 1l-2.2 2.21c1.44 2.84 3.76 5.15 6.59 6.59l2.2-2.2c.28-.27.67-.35 1.02-.24 1.12.37 2.32.57 3.57.57a1 1 0 0 1 1 1V17a1 1 0 0 1-1 1C7.611 18 0 10.389 0 1zm16 5.5V8h-6V2h1.5v3.5L17 0l1 1-5.5 5.5H16z" fill="#F3084E"/></svg>
